packages/kaspersky-hexa-ui-icons/src/iconsSVGs/16/Table.svg

<svg width="16" height="16" viewBox="0 0 16 16" fill="none" xmlns="http://www.w3.org/2000/svg">
<path fill-rule="evenodd" clip-rule="evenodd" d="M1.49268 4.49268C1.49268 2.83582 2.83582 1.49268 4.49268 1.49268H11.5073C13.1642 1.49268 14.5073 2.83582 14.5073 4.49268V11.5073C14.5073 13.1642 13.1642 14.5073 11.5073 14.5073H4.49268C2.83582 14.5073 1.49268 13.1642 1.49268 11.5073V4.49268ZM4.49268 2.79268H11.5073C12.4462 2.79268 13.2073 3.55379 13.2073 4.49268V5.52554H2.79268V4.49268C2.79268 3.55379 3.55379 2.79268 4.49268 2.79268ZM9.5834 6.82554H6.4166V13.2073H9.5834V6.82554ZM10.8834 13.2073V6.82554H13.2073V11.5073C13.2073 12.4462 12.4462 13.2073 11.5073 13.2073H10.8834ZM2.79268 6.82554H5.1166V13.2073H4.49268C3.55379 13.2073 2.79268 12.4462 2.79268 11.5073V6.82554Z" fill="black"/>
</svg>

<svg xmlns="http://www.w3.org/2000/svg" width="16" height="16" fill="none" viewBox="0 0 16 16"><path fill="#000" fill-rule="evenodd" d="M1.4927 4.4927c0-1.6569 1.3431-3 3-3h7.0146c1.6569 0 3 1.3431 3 3v7.0146c0 1.6569-1.3431 3-3 3H4.4927c-1.6569 0-3-1.3431-3-3zm3-1.7h7.0146c.9389 0 1.7.761 1.7 1.7v1.0328H2.7927V4.4927c0-.939.761-1.7 1.7-1.7m5.0907 4.0328H6.4166v6.3818h3.1668zm1.3 6.3818V6.8255h2.3239v4.6818c0 .9389-.7611 1.7-1.7 1.7zM2.7927 6.8255h2.3239v6.3818h-.624c-.9388 0-1.7-.7611-1.7-1.7z"/></svg>
